X:2029
T:Fluff on the Carpet
O:england
R:Reel
M:4/4
C:Andy Hornby
A:Lancaster
N:1987
K:D
d2cd BdAF |DFAF GFEF |D2FA dAFA |BGed cdef |
d2cd BdAF |DFAF GFEF |DFAF GABG |1 \
ABcAd2(3ABc:|2 ABcA Bcde ||
|:f2df Afdf |edcB Aceg | f2df Afdf | gfeg fdde |
f2df Afdf | edcB cdec | d2fd adfd |1 geced3e :|2 geced4|]
W:Copyright (C) Andy Hornby


